X:552
T:The Kerry cow
R:Polka
O:Ireland
D:Sean Ryan: Siuil Uait
S:Henrik Norbeck ABC
B:Ceol Rince 2 n116
S:My arrangement from various sources
Z:Transcription, arrangement, chords:Mike Long
M:2/4
L:1/8
K:D
"D"A>B AG|FA d2|"G"G>A GF|"A"EF G/F/E|\
"D"A>B AG|FA de/d/|"A"cA "G"GE|"D"D2 D2:|
|:"D"d>e fd|"A"cA A2|"G"BG GF/G/|"A"BA A2|\
"D"d>e fd|"A"cA A2|"G"GB "A"AF|"D"D2 D2:|
